svgs/solid/arrow-up-to-line.svg

<svg xmlns="http://www.w3.org/2000/svg" viewBox="0 0 384 512"><!-- Font Awesome Pro 6.0.0-alpha2 by @fontawesome - https://fontawesome.com License - https://fontawesome.com/license (Commercial License) --><path d="M86.625 342.625L160 269.25V448C160 465.688 174.312 480 192 480S224 465.688 224 448V269.25L297.375 342.625C303.625 348.875 311.812 352 320 352S336.375 348.875 342.625 342.625C355.125 330.125 355.125 309.875 342.625 297.375L214.625 169.375C202.125 156.875 181.875 156.875 169.375 169.375L41.375 297.375C28.875 309.875 28.875 330.125 41.375 342.625S74.125 355.125 86.625 342.625ZM32 96H352C369.688 96 384 81.688 384 64S369.688 32 352 32H32C14.312 32 0 46.312 0 64S14.312 96 32 96Z"/></svg>

<svg xmlns="http://www.w3.org/2000/svg" viewBox="0 0 384 512"><!--! Font Awesome Pro 6.4.0 by @fontawesome - https://fontawesome.com License - https://fontawesome.com/license (Commercial License) Copyright 2023 Fonticons, Inc. --><path d="M32 32C14.3 32 0 46.3 0 64S14.3 96 32 96H352c17.7 0 32-14.3 32-32s-14.3-32-32-32H32zM214.6 169.4c-12.5-12.5-32.8-12.5-45.3 0l-128 128c-12.5 12.5-12.5 32.8 0 45.3s32.8 12.5 45.3 0L160 269.3V448c0 17.7 14.3 32 32 32s32-14.3 32-32V269.3l73.4 73.4c12.5 12.5 32.8 12.5 45.3 0s12.5-32.8 0-45.3l-128-128z"/></svg>
